X: 99
M:9/8
L:1/8
K:Em
ug|\
uB|\
def gag fed | B2d d2c d2g | d2c B2A G2A | B2e e2d e3  |
def gag fed | B2d d2c d2g | d2c B2A G2A | B2e e2d e2 "_D.C."|]


